X:1
T:St. Patrick’s Day in the Morning
M:6/8
L:1/8
R:Jig
B:John Moore music manuscript (Shropshire c. 1837-40, Book 2, p. 79)
B:  https://www.vwml.org/topics/historic-dance-and-tune-books/Moore2
Z:AK/Fiddler’s Companion
K:D
A|ded def|aba gfd|fgf fdA|BcB B2A|
ded def|aba afd|fgf fdA|B3 d2:|
|:a|abc' d'2b|c'2b bag|abc' d'2b|c'2b b3|
abc' d'c'b|c'ba bc'd'|ded def|aba afd|fgf fdA|
BcB B2A|ded def|aba afd|fgf fdA|B3 d2:|

